X: 1944
T: Vuslata Nâil de Etse
C: Zekâî Dede
O: Turkey
F: http://compmusic.upf.edu/node/140
N: hisarbuselik--sarki--agiraksak--vuslata_nail--zekai_dede
N: makam= hisarbuselik
N: form= sarki
N: usul= agiraksak = 9/4
M: 9/4
L: 1/16
K: C _1/4B   
Q: 1/4=72
%%MIDI tuningsystem comma53
=ba^ga b2c'2 b3c' a3b g3a f3g e3f d2ef edc2  | 
w:  ARANAĞME  | 
z2=Bc d^de^3/4f g3=f e2=d2 c2{d}cB cBA^G A4 e2f^g a4  | 
w:   | 
=ba^ga b2c'2 b3c' a3b g3a f3g e3f d2ef edc2  | 
w:  ARANAĞME  | 
z2=Bc d^de^3/4f g3=f e2=d2 c3B cBA^G A6^ga gfe^d  | 
w:   | 
e3/2^d/ef edcd e2d4ge e4 e2{f}ed zc2d e2f2 ^g2a2  | 
w:  *  *  *  *  *  *  *  *  *  Vus la *  ta  *  *  *  *  nâ  | 
g2f2 e2d4=Bc B2A2 B2cB BAAB ^G4 A8  | \
w:  *  *  *  *  il  *  *  de  et *  *  *  *  *  *  se   | 
z2A=B A2B2 dccB c2d2 e2f2 e2d2 ddcB A4 B2cB  | 
w:  ger  *  *  *  *  *  *  *  *  *  *  *  *  *  *  *  *  *  *  fe  | 
A^GA4=B2 c2d2 e2f2 ^g2a2 gffe e4 z2f2 =g^3/4fef  | 
w:  lek   *  *  *  *  *  *  *  *  *  *  *  *  *  *  SAZ  | 
G2A=B cde^3/4f g2g4_b2 {b}a2g2 =f2e2 dd2e f2a2 g2^3/4f2  | 
w:  *  *  *  *  *  *  *  *  Sev  be *  ni  *  *  *  der  | 
{a}gfe2 e3d d2de d2{e}c2 d2{e}df feed dcc=B BAA^G A4  | 
w:  *  *  *  *  *  *  *  dim  *  *  *  yi ne  *  *  *  *  *  *  *  son   | 
z2=BA B2G2 z2cB c2d2 e2{g}f2 e2d2 dccB A4 B2{d}cB  | 
w:  â *  *  *  â *  *  *  *  *  *  *  *  *  *  *  *  *  ne   | 
A^GA4=B2 c2d2 c2B2 BAAG ^1/4F2G2 A4 z2a2 ^g2=b2  | \
w:  dek   *  *  *  *  *  *  *  *  *  *  *  *  *  *  SAZ  | 
a3/2=b/c'b a^gfg a2a4c'2 {c'}b2a2 g2f2 e3f g2a2 b2c'b  | 
w:  *  *  *  *  *  *  *  *  *  Sev di *  ğim  *  *  *  *  *  bu   | 
=baa^g a4 z2a4c'2 {c'}b2a2 g2f2 gffe e4 e2{f}^d2  | \
w:  *  *  *  *  *  nük te *  yi  *  *  *  bil  | 
^d2e4de f6ef ^g2{=b}a2 g2f2 e4 {f}d4 e2{=g}fe  | 
w:  *  mek  *  *  *  *  *  *  *  *  *  *  *  *  *  ge  | 
e2e4=b2 b2{c'}ba a2{b}a^g g2{a}gf gffe e4 z2=g2 g^3/4fef  | 
w:  *  rek   *  *  *  *  *  *  *  *  *  *  *  *  *  *  *  *  *  *  SAZ  | 
G2A=B cde^3/4f g2g4_b2 {b}a2g2 =f2e2 dd2e f2a2 g2^3/4f2  | 
w:  *  *  *  *  *  *  *  *  Sev  be *  ni  *  *  *  der  | 
{a}gfe2 e3d d2de d2{e}c2 d2{e}df feed dcc=B BAA^G A4  | 
w:  *  *  *  *  *  *  *  dim  *  *  *  yi ne  *  *  *  *  *  *  *  son   | 
z2=BA B2G2 z2cB c2d2 e2{g}f2 e2d2 dccB A4 B2{d}cB  | 
w:  â *  *  *  â *  *  *  *  *  *  *  *  *  *  *  *  *  ne   | 
A^GA4=B2 c2d2 c2B2 BAAG ^1/4F2G2 A4 |
w:  dek    | 


